src/assets/icons/document.svg

<svg viewBox="0 0 16 20" xmlns="http://www.w3.org/2000/svg">
<path d="M16 6.94C15.9896 6.84813 15.9695 6.75763 15.94 6.67V6.58C15.8919 6.47718 15.8278 6.38267 15.75 6.3L9.75 0.3C9.66734 0.222216 9.57282 0.158081 9.47 0.11H9.38L9.06 0H3C2.20435 0 1.44129 0.316071 0.87868 0.87868C0.316071 1.44129 0 2.20435 0 3V17C0 17.7956 0.316071 18.5587 0.87868 19.1213C1.44129 19.6839 2.20435 20 3 20H13C13.7956 20 14.5587 19.6839 15.1213 19.1213C15.6839 18.5587 16 17.7956 16 17V7C16 7 16 7 16 6.94ZM10 3.41L12.59 6H10V3.41ZM14 17C14 17.2652 13.8946 17.5196 13.7071 17.7071C13.5196 17.8946 13.2652 18 13 18H3C2.73478 18 2.48043 17.8946 2.29289 17.7071C2.10536 17.5196 2 17.2652 2 17V3C2 2.73478 2.10536 2.48043 2.29289 2.29289C2.48043 2.10536 2.73478 2 3 2H8V7C8 7.26522 8.10536 7.51957 8.29289 7.70711C8.48043 7.89464 8.73478 8 9 8H14V17Z"/>
</svg>

<svg viewBox="0 0 16 20" xmlns="http://www.w3.org/2000/svg">
  <path d="M16 6.94a1.307 1.307 0 0 0-.06-.27v-.09a1.07 1.07 0 0 0-.19-.28l-6-6a1.07 1.07 0 0 0-.28-.19h-.09L9.06 0H3a3 3 0 0 0-3 3v14a3 3 0 0 0 3 3h10a3 3 0 0 0 3-3V6.94zm-6-3.53L12.59 6H10V3.41zM14 17a1 1 0 0 1-1 1H3a1 1 0 0 1-1-1V3a1 1 0 0 1 1-1h5v5a1 1 0 0 0 1 1h5v9z"/>
</svg>
